public/-₦17,000.svg

<svg width="228" height="46" viewBox="0 0 228 46" fill="none" xmlns="http://www.w3.org/2000/svg">
<path d="M0.392 28.004V19.892H14.38V28.004H0.392ZM22.2491 37V24.52H18.8691V20.62H22.2491V18.02H18.8691V14.12H22.2491V1.224H32.7011L41.3851 14.12H46.6891V1.224H56.2571V14.12H59.6371V18.02H56.2571V20.62H59.6371V24.52H56.2571V37H45.8571L37.4331 24.52H31.8171V37H22.2491ZM31.8171 20.62H34.8331L31.8171 16.2V20.62ZM46.6891 21.972V18.02H44.0371L46.6891 21.972ZM64.2265 37V29.408H68.5945V11.416H64.2265V4.604C65.7171 4.604 67.3465 4.32666 69.1145 3.772C70.8825 3.21733 72.6158 2.368 74.3145 1.224H79.7745V29.408H84.1425V37H64.2265ZM96.9519 37.884L87.4879 33.88L99.0839 8.816H86.1879V1.224H110.524V7.568L96.9519 37.884ZM112.902 45.788L111.082 41.212C114.132 40.172 115.658 38.872 115.658 37.312C114.271 37.312 113.11 36.8093 112.174 35.804C111.272 34.7987 110.822 33.5333 110.822 32.008C110.822 30.4827 111.342 29.2347 112.382 28.264C113.456 27.2587 114.843 26.756 116.542 26.756C118.414 26.756 119.87 27.4147 120.91 28.732C121.984 30.0147 122.522 31.7827 122.522 34.036C122.522 36.9827 121.69 39.4787 120.026 41.524C118.362 43.5693 115.987 44.9907 112.902 45.788ZM141.059 37.416C137.904 37.416 135.096 36.636 132.635 35.076C130.174 33.4813 128.232 31.2973 126.811 28.524C125.424 25.716 124.731 22.5093 124.731 18.904C124.731 15.3333 125.424 12.1613 126.811 9.388C128.232 6.61467 130.174 4.43067 132.635 2.836C135.096 1.24133 137.904 0.444 141.059 0.444C143.416 0.444 145.583 0.911999 147.559 1.848C149.535 2.74933 151.251 4.032 152.707 5.696C154.163 7.32533 155.29 9.26667 156.087 11.52C156.919 13.7733 157.335 16.2347 157.335 18.904C157.335 22.4747 156.624 25.664 155.203 28.472C153.816 31.2453 151.892 33.4293 149.431 35.024C147.004 36.6187 144.214 37.416 141.059 37.416ZM141.059 28.524C142.792 28.524 144.144 27.6747 145.115 25.976C146.12 24.2773 146.623 21.92 146.623 18.904C146.623 15.9573 146.12 13.6347 145.115 11.936C144.144 10.2027 142.792 9.336 141.059 9.336C139.291 9.336 137.904 10.1853 136.899 11.884C135.928 13.5827 135.443 15.9227 135.443 18.904C135.443 21.8507 135.946 24.1907 136.951 25.924C137.991 27.6573 139.36 28.524 141.059 28.524ZM176.352 37.416C173.197 37.416 170.389 36.636 167.928 35.076C165.467 33.4813 163.525 31.2973 162.104 28.524C160.717 25.716 160.024 22.5093 160.024 18.904C160.024 15.3333 160.717 12.1613 162.104 9.388C163.525 6.61467 165.467 4.43067 167.928 2.836C170.389 1.24133 173.197 0.444 176.352 0.444C178.709 0.444 180.876 0.911999 182.852 1.848C184.828 2.74933 186.544 4.032 188 5.696C189.456 7.32533 190.583 9.26667 191.38 11.52C192.212 13.7733 192.628 16.2347 192.628 18.904C192.628 22.4747 191.917 25.664 190.496 28.472C189.109 31.2453 187.185 33.4293 184.724 35.024C182.297 36.6187 179.507 37.416 176.352 37.416ZM176.352 28.524C178.085 28.524 179.437 27.6747 180.408 25.976C181.413 24.2773 181.916 21.92 181.916 18.904C181.916 15.9573 181.413 13.6347 180.408 11.936C179.437 10.2027 178.085 9.336 176.352 9.336C174.584 9.336 173.197 10.1853 172.192 11.884C171.221 13.5827 170.736 15.9227 170.736 18.904C170.736 21.8507 171.239 24.1907 172.244 25.924C173.284 27.6573 174.653 28.524 176.352 28.524ZM211.645 37.416C208.49 37.416 205.682 36.636 203.221 35.076C200.76 33.4813 198.818 31.2973 197.397 28.524C196.01 25.716 195.317 22.5093 195.317 18.904C195.317 15.3333 196.01 12.1613 197.397 9.388C198.818 6.61467 200.76 4.43067 203.221 2.836C205.682 1.24133 208.49 0.444 211.645 0.444C214.002 0.444 216.169 0.911999 218.145 1.848C220.121 2.74933 221.837 4.032 223.293 5.696C224.749 7.32533 225.876 9.26667 226.673 11.52C227.505 13.7733 227.921 16.2347 227.921 18.904C227.921 22.4747 227.21 25.664 225.789 28.472C224.402 31.2453 222.478 33.4293 220.017 35.024C217.59 36.6187 214.8 37.416 211.645 37.416ZM211.645 28.524C213.378 28.524 214.73 27.6747 215.701 25.976C216.706 24.2773 217.209 21.92 217.209 18.904C217.209 15.9573 216.706 13.6347 215.701 11.936C214.73 10.2027 213.378 9.336 211.645 9.336C209.877 9.336 208.49 10.1853 207.485 11.884C206.514 13.5827 206.029 15.9227 206.029 18.904C206.029 21.8507 206.532 24.1907 207.537 25.924C208.577 27.6573 209.946 28.524 211.645 28.524Z" fill="white"/>
</svg>

<svg xmlns="http://www.w3.org/2000/svg" width="228" height="46" fill="none"><path fill="#fff" d="M.392 28.004v-8.112H14.38v8.112zM22.249 37V24.52h-3.38v-3.9h3.38v-2.6h-3.38v-3.9h3.38V1.224h10.452l8.684 12.896h5.304V1.224h9.568V14.12h3.38v3.9h-3.38v2.6h3.38v3.9h-3.38V37h-10.4l-8.424-12.48h-5.616V37zm9.568-16.38h3.016l-3.016-4.42zm14.872 1.352V18.02h-2.652zM64.227 37v-7.592h4.367V11.416h-4.367V4.604q2.236 0 4.888-.832 2.65-.832 5.2-2.548h5.46v28.184h4.367V37zm32.725.884-9.464-4.004L99.084 8.816H86.188V1.224h24.336v6.344zm15.95 7.904-1.82-4.576q4.575-1.56 4.576-3.9-2.08 0-3.484-1.508-1.352-1.507-1.352-3.796 0-2.287 1.56-3.744 1.611-1.508 4.16-1.508 2.808 0 4.368 1.976 1.612 1.924 1.612 5.304 0 4.42-2.496 7.488t-7.124 4.264m28.157-8.372q-4.732 0-8.424-2.34-3.692-2.392-5.824-6.552-2.08-4.212-2.08-9.62 0-5.356 2.08-9.516 2.132-4.16 5.824-6.552t8.424-2.392q3.536 0 6.5 1.404a15.1 15.1 0 0 1 5.148 3.848q2.184 2.444 3.38 5.824 1.248 3.38 1.248 7.384 0 5.356-2.132 9.568-2.08 4.16-5.772 6.552-3.64 2.392-8.372 2.392m0-8.892q2.6 0 4.056-2.548 1.508-2.548 1.508-7.072 0-4.42-1.508-6.968-1.457-2.6-4.056-2.6-2.652 0-4.16 2.548-1.456 2.549-1.456 7.02 0 4.42 1.508 7.02 1.56 2.6 4.108 2.6m35.293 8.892q-4.732 0-8.424-2.34-3.692-2.392-5.824-6.552-2.08-4.212-2.08-9.62 0-5.356 2.08-9.516 2.132-4.16 5.824-6.552t8.424-2.392q3.536 0 6.5 1.404A15.1 15.1 0 0 1 188 5.696q2.184 2.444 3.38 5.824 1.248 3.38 1.248 7.384 0 5.356-2.132 9.568-2.08 4.16-5.772 6.552-3.64 2.392-8.372 2.392m0-8.892q2.6 0 4.056-2.548 1.508-2.548 1.508-7.072 0-4.42-1.508-6.968-1.457-2.6-4.056-2.6-2.652 0-4.16 2.548-1.456 2.549-1.456 7.02 0 4.42 1.508 7.02 1.56 2.6 4.108 2.6m35.293 8.892q-4.732 0-8.424-2.34-3.692-2.392-5.824-6.552-2.08-4.212-2.08-9.62 0-5.356 2.08-9.516 2.132-4.16 5.824-6.552t8.424-2.392q3.536 0 6.5 1.404a15.1 15.1 0 0 1 5.148 3.848q2.184 2.444 3.38 5.824 1.248 3.38 1.248 7.384 0 5.356-2.132 9.568-2.08 4.16-5.772 6.552-3.64 2.392-8.372 2.392m0-8.892q2.6 0 4.056-2.548 1.508-2.548 1.508-7.072 0-4.42-1.508-6.968-1.457-2.6-4.056-2.6-2.652 0-4.16 2.548-1.456 2.549-1.456 7.02 0 4.42 1.508 7.02 1.56 2.6 4.108 2.6"/></svg>
